arkscan/icons/swapter.svg

<svg width="201" height="200" viewBox="0 0 201 200" fill="none" xmlns="http://www.w3.org/2000/svg">
<path d="M111.768 107.064C112.541 107.019 113.31 106.939 114.077 106.834C112.529 109.681 111.71 112.865 111.691 116.105C109.271 118.495 105.41 122.419 105.049 123.496C104.592 125.149 104.497 126.881 104.769 128.574C105.041 130.267 105.674 131.882 106.625 133.308C109.254 136.988 112.934 135.762 114.16 137.339C115.386 138.917 111.356 141.195 106.099 140.669C100.842 140.143 99.616 136.638 98.9144 134.36C98.2128 132.082 99.9661 125.599 100.261 124.548C100.556 123.496 96.1095 125.073 96.8125 123.672C97.5154 122.27 100.843 119.816 101.719 114.735C102.421 111.777 103.813 109.026 105.782 106.709C107.757 107.056 109.766 107.175 111.768 107.064Z" fill="#9142E3"/>
<path d="M7.9767 79.3878C17.2951 73.349 33.9101 69.8798 54.2365 73.5593C74.5628 77.2388 80.3457 75.837 91.5598 75.837C102.774 75.837 101.022 73.3836 112.062 74.2596C123.102 75.1355 123.271 70.0542 133.44 67.0749C143.68 64.0735 151.844 66.7234 155.518 66.0233C159.192 65.3231 160.777 56.3853 166.382 55.5066C171.988 54.6279 188.812 54.805 194.769 56.7326C200.726 58.6602 200.552 64.443 200.027 66.7207C199.503 68.9984 183.468 69.0869 183.468 69.0869L197.573 74.7826C197.573 74.7826 198.449 78.1119 196.347 79.1636C194.245 80.2153 178.811 77.3357 170.237 76.1844C168.109 75.8993 164.644 80.0811 162.657 82.7684C160.805 80.9545 158.553 79.5996 156.083 78.8122C158.486 80.5642 160.331 82.9731 161.398 85.7491C161.661 86.9898 161.628 88.275 161.301 89.5005C160.599 92.4798 155.87 94.5817 156.744 95.6334C157.619 96.6851 165.681 96.1593 166.207 98.6127C166.732 101.066 161.301 105.096 159.198 104.921C157.094 104.747 158.496 103.279 159.022 101.242C159.548 99.2049 153.415 98.4383 152.013 97.3866C151.607 97.0837 151.283 96.6851 151.069 96.2263C150.855 95.7675 150.758 95.2629 150.787 94.7575C148.633 97.9116 145.747 100.497 142.376 102.292C138.54 104.202 134.47 105.6 130.27 106.45C130.536 102.505 130.265 98.5425 129.464 94.6703C128.496 90.2713 126.448 85.197 122.926 82.2163C125.582 85.9419 127.284 90.2617 127.884 94.7976C128.458 98.8147 128.551 102.886 128.161 106.925C128.022 107.479 127.054 111.353 126.077 115.089C125.025 119.12 120.996 123.326 120.294 127.705C119.592 132.085 122.572 138.394 127.127 139.095C131.683 139.797 137.815 144.002 134.136 145.054C130.457 146.105 122.22 145.404 119.067 142.425C115.913 139.445 115.387 133.845 114.51 132.086C113.633 130.328 111.706 130.86 111.881 130.159C112.055 129.457 114.86 126.829 114.51 124.2C114.279 122.464 113.972 118.665 113.789 116.29C113.912 111.898 115.102 107.902 118.508 104.898C117.049 103.551 115.669 102.121 114.306 100.677C110.814 96.984 107.249 92.7177 105.793 87.7541C106.403 91.2831 107.761 94.6407 109.776 97.6011C111.41 100.238 113.349 102.674 115.552 104.859C115.027 104.885 114.251 105.1 113.916 105.123C113.067 105.182 112.216 105.204 111.363 105.188C109.818 105.162 108.28 104.992 106.766 104.682C105.32 104.196 103.924 103.574 102.595 102.825C95.7914 99.0887 95.5866 94.4143 89.6281 93.3626C77.6819 91.2551 64.0447 88.9816 54.2323 84.7832C44.42 80.5848 38.4572 78.3001 24.6194 79.0003C16.144 79.4774 7.85586 81.6837 0.264893 85.4833C2.56467 83.1305 5.15637 81.0821 7.9767 79.3878ZM43.8097 75.3748C50.5792 76.0418 57.2019 77.5571 63.923 78.5451C70.7765 79.5203 77.7003 79.9138 84.6202 79.7213C88.0602 79.6438 91.5031 79.6548 94.9418 79.5635C98.2847 79.3189 101.609 78.8627 104.894 78.1977C108.208 77.8914 111.543 77.8883 114.857 78.1881C117.969 78.3445 121.068 77.6807 123.843 76.2633C126.543 74.6036 129.336 73.0998 132.207 71.7591C135.216 70.5902 138.373 69.845 141.588 69.545C145.09 69.2817 148.608 69.316 152.104 69.6474C155.124 69.8619 157.9 70.1206 160.089 67.67C162.113 65.4061 163.144 62.3936 165.369 60.2875C167.751 58.0333 171.257 58.252 174.325 58.1814C180.457 58.0548 186.59 58.3479 192.681 59.0587C193.735 59.1804 194.779 59.3479 195.825 59.5195C190.752 57.4438 185.031 57.1463 179.625 56.9083C176.383 56.7228 173.134 56.7306 169.893 56.9318C168.408 57.0185 166.965 57.4506 165.677 58.194C164.389 58.9373 163.292 59.9712 162.474 61.2132C161.599 62.4116 160.86 63.704 160.022 64.9273C159.324 66.2395 158.19 67.2671 156.816 67.8332C155.387 68.0592 153.931 68.0443 152.507 67.789C150.808 67.6367 149.11 67.4749 147.404 67.3946C140.502 66.9432 133.611 68.4157 127.497 71.6483C124.578 73.2673 121.938 75.2614 118.57 75.8246C115.299 76.3712 111.997 75.7706 108.709 75.7997C105.25 75.8301 102.046 76.8029 98.6503 77.2609C95.1253 77.5948 91.5857 77.7505 88.045 77.7273C80.9804 78.086 73.8991 77.9329 66.8566 77.2693C60.0235 76.5096 53.2803 75.1008 46.4361 74.4352C39.9177 73.727 33.3408 73.7456 26.8266 74.4906C21.5791 75.0233 16.4669 76.4783 11.7254 78.7886C10.7982 79.2702 9.90984 79.8154 9.03391 80.3841C19.2836 74.3536 32.298 74.2457 43.8097 75.3804V75.3748Z" fill="#9142E3"/>
</svg>

<svg width="201" height="200" fill="none" xmlns="http://www.w3.org/2000/svg"><path d="M111.768 107.064a29.776 29.776 0 0 0 2.309-.23 19.646 19.646 0 0 0-2.386 9.271c-2.42 2.39-6.281 6.314-6.642 7.391a11.946 11.946 0 0 0 1.576 9.812c2.629 3.68 6.309 2.454 7.535 4.031 1.226 1.578-2.804 3.856-8.061 3.33-5.257-.526-6.483-4.031-7.185-6.309-.701-2.278 1.052-8.761 1.347-9.812.295-1.052-4.151.525-3.448-.876.702-1.402 4.03-3.856 4.906-8.937a19.264 19.264 0 0 1 4.063-8.026c1.975.347 3.984.466 5.986.355Z" fill="#9142E3"/><path d="M7.977 79.388c9.318-6.039 25.933-9.508 46.26-5.829 20.326 3.68 26.109 2.278 37.323 2.278 11.214 0 9.462-2.453 20.502-1.577 11.04.875 11.209-4.206 21.378-7.185 10.24-3.002 18.404-.352 22.078-1.052 3.674-.7 5.259-9.638 10.864-10.516 5.606-.88 22.43-.702 28.387 1.226 5.957 1.927 5.783 7.71 5.258 9.988-.524 2.277-16.559 2.366-16.559 2.366l14.105 5.696s.876 3.329-1.226 4.38c-2.102 1.052-17.536-1.827-26.11-2.979-2.128-.285-5.593 3.897-7.58 6.584a16.602 16.602 0 0 0-6.574-3.956 15.439 15.439 0 0 1 5.315 6.937 8.064 8.064 0 0 1-.097 3.752c-.702 2.979-5.431 5.08-4.557 6.132.875 1.052 8.937.526 9.463 2.98.525 2.453-4.906 6.483-7.009 6.308-2.104-.174-.702-1.642-.176-3.679s-5.607-2.804-7.009-3.855a3.062 3.062 0 0 1-1.226-2.63 23.64 23.64 0 0 1-8.411 7.535 48.94 48.94 0 0 1-12.106 4.158 43.652 43.652 0 0 0-.806-11.78c-.968-4.399-3.016-9.473-6.538-12.454a27.998 27.998 0 0 1 4.958 12.582 51.05 51.05 0 0 1 .277 12.127c-.139.554-1.107 4.428-2.084 8.164-1.052 4.031-5.081 8.237-5.783 12.616-.702 4.38 2.278 10.689 6.833 11.39 4.556.702 10.688 4.907 7.009 5.959-3.679 1.051-11.916.35-15.069-2.629-3.154-2.98-3.68-8.58-4.557-10.339-.877-1.758-2.804-1.226-2.629-1.927.174-.702 2.979-3.33 2.629-5.959-.231-1.736-.538-5.535-.721-7.91.123-4.392 1.313-8.388 4.719-11.392-1.459-1.347-2.839-2.777-4.202-4.221-3.492-3.693-7.057-7.96-8.513-12.923a25.097 25.097 0 0 0 3.983 9.847 39.606 39.606 0 0 0 5.776 7.258c-.525.026-1.301.241-1.636.264-.849.059-1.7.081-2.553.065a25.01 25.01 0 0 1-4.597-.506 24.193 24.193 0 0 1-4.171-1.857c-6.804-3.736-7.008-8.41-12.967-9.462-11.946-2.108-25.583-4.381-35.396-8.58C44.42 80.585 38.457 78.3 24.62 79A62.224 62.224 0 0 0 .265 85.483a38.529 38.529 0 0 1 7.712-6.095Zm35.833-4.013c6.77.667 13.392 2.182 20.113 3.17a122.7 122.7 0 0 0 20.697 1.176c3.44-.077 6.883-.066 10.322-.157 3.343-.245 6.667-.701 9.952-1.366a54.704 54.704 0 0 1 9.963-.01 17.793 17.793 0 0 0 8.986-1.925 83.18 83.18 0 0 1 8.364-4.504 34.847 34.847 0 0 1 9.381-2.214 62.099 62.099 0 0 1 10.516.102c3.02.215 5.796.474 7.985-1.977 2.024-2.264 3.055-5.276 5.28-7.383 2.382-2.254 5.888-2.035 8.956-2.106 6.132-.126 12.265.167 18.356.878 1.054.121 2.098.289 3.144.46-5.073-2.075-10.794-2.373-16.2-2.61a81.714 81.714 0 0 0-9.732.023 9.545 9.545 0 0 0-7.419 4.281c-.875 1.199-1.614 2.491-2.452 3.714a6.388 6.388 0 0 1-3.206 2.906 12.95 12.95 0 0 1-4.309-.044c-1.699-.152-3.397-.314-5.103-.394a37.37 37.37 0 0 0-19.907 4.253c-2.919 1.62-5.559 3.613-8.927 4.177-3.271.546-6.573-.054-9.861-.025-3.459.03-6.663 1.003-10.059 1.46-3.525.335-7.064.49-10.605.467-7.065.359-14.146.206-21.188-.458-6.834-.76-13.577-2.168-20.42-2.834a88.476 88.476 0 0 0-19.61.056 44.807 44.807 0 0 0-15.102 4.298 32.306 32.306 0 0 0-2.691 1.595c10.25-6.03 23.264-6.138 34.776-5.004v-.005Z" fill="#9142E3"/></svg>
